assets/images/all.svg

<svg xmlns="http://www.w3.org/2000/svg" xmlns:xlink="http://www.w3.org/1999/xlink" id="Layer_1" x="0" y="0" version="1.1" viewBox="0 0 20 20" style="enable-background:new 0 0 20 20" xml:space="preserve"><style type="text/css">.st0{fill-rule:evenodd;clip-rule:evenodd}</style><path d="M6 3C6 2.44772 6.44772 2 7 2H13C13.5523 2 14 2.44772 14 3C14 3.55228 13.5523 4 13 4H7C6.44772 4 6 3.55228 6 3ZM4 7C4 6.44772 4.44772 6 5 6H15C15.5523 6 16 6.44772 16 7C16 7.55228 15.5523 8 15 8H5C4.44772 8 4 7.55228 4 7ZM16 10H4C2.34315 10 1 11.3431 1 13V15C1 16.6569 2.34315 18 4 18H16C17.6569 18 19 16.6569 19 15V13C19 11.3431 17.6569 10 16 10ZM3 13C3 12.4477 3.44772 12 4 12H16C16.5523 12 17 12.4477 17 13V15C17 15.5523 16.5523 16 16 16H4C3.44772 16 3 15.5523 3 15V13Z" class="st0"/></svg>

<svg xmlns="http://www.w3.org/2000/svg" xml:space="preserve" viewBox="0 0 20 20"><path d="M6 3a1 1 0 0 1 1-1h6a1 1 0 1 1 0 2H7a1 1 0 0 1-1-1M4 7a1 1 0 0 1 1-1h10a1 1 0 1 1 0 2H5a1 1 0 0 1-1-1m12 3H4a3 3 0 0 0-3 3v2a3 3 0 0 0 3 3h12a3 3 0 0 0 3-3v-2a3 3 0 0 0-3-3M3 13a1 1 0 0 1 1-1h12a1 1 0 0 1 1 1v2a1 1 0 0 1-1 1H4a1 1 0 0 1-1-1z" style="fill-rule:evenodd;clip-rule:evenodd"/></svg>
